Origami/64x64/apps/frogr.svg

<svg width="64" height="64" version="1.1" viewBox="0 0 64 64" xmlns="http://www.w3.org/2000/svg">
 <path d="m2.183472 12.850479a3.0027651 3.0027651 0 0 0 2.8616539 4.003153h3.0023648v-2.04441h-3.0023648a3.0027651 3.0027651 0 0 1 -2.8616539 -1.982161zm59.765073 0a3.0027651 3.0027651 0 0 1 -2.860253 2.001577h-3.002365v2.04441h3.002365a3.0027651 3.0027651 0 0 0 2.861654 -4.022568zm-53.900454 7.005518v2.04441a3.0027651 3.0027651 0 0 0 3.0023649 3.002365h7.005518v-2.04441h-7.005518a3.0027651 3.0027651 0 0 1 -3.0023649 -3.002365zm48.037836 0a3.0027651 3.0027651 0 0 1 -3.002365 3.002365h-7.005517v2.04441h7.005517a3.0027651 3.0027651 0 0 0 3.002365 -3.002365v-2.04441zm-42.033106 25.019706v2.044411h4.003153v1.051628c0 6.069781 4.998336 10.957831 11.208027 10.957831h5.606016c6.209691 0 11.208028-4.88805 11.208028-10.957831v-1.051628h4.003153v-2.044411h-4.003153v1.051429c0 6.06978-4.998337 10.95803-11.208028 10.95803h-5.606016c-6.210891 0-11.208828-4.803783-11.208828-11.00867v-1.051428h-4.003153zm-11.868748 6.024145a3.0027651 3.0027651 0 0 0 2.8616539 4.003153h3.0023647v-2.04441h-3.0023647a3.0027651 3.0027651 0 0 1 -2.8616539 -1.982161zm59.765072 0a3.0027651 3.0027651 0 0 1 -2.860253 2.001577h-3.002364v2.04441h3.002364a3.0027651 3.0027651 0 0 0 2.861654 -4.022568zm-53.900453 5.003941v2.044411a3.0027651 3.0027651 0 1 0 6.0047294 0v-2.044411a3.0027651 3.0027651 0 1 1 -6.0047294 0zm42.033106 0v2.044411a3.0027651 3.0027651 0 1 0 6.00473 0v-2.044411a3.0027651 3.0027651 0 1 1 -6.00473 0z" style="fill-rule:evenodd;opacity:.2"/>
 <path d="m29.264202 6.0442901h5.604414c6.209691 0 11.208828 4.8862489 11.208828 10.956029v30.129731c0 6.069781-4.999137 10.95603-11.208828 10.95603h-5.604414c-6.209691 0-11.208829-4.886249-11.208829-10.95603v-30.129731c0-6.06978 4.999138-10.956029 11.208829-10.956029z" style="fill:#91dd48"/>
 <g transform="matrix(2.0015765 0 0 2.0015765 .04118465 -2042.3691)" style="fill:none;stroke-linecap:round;stroke-linejoin:round;stroke-width:3;stroke:#91dd48">
  <path d="m5.5 1023.9v7h7"/>
  <path d="m2.5 1026.9h2"/>
 </g>
 <path d="m11.049855 7.0450784v14.011036h14.011036" style="fill:none;stroke-linecap:round;stroke-linejoin:round;stroke-width:6.0047293;stroke:#91dd48"/>
 <path d="m5.0451259 13.049808h4.003153" style="fill:none;stroke-linecap:round;stroke-linejoin:round;stroke-width:6.0047293;stroke:#91dd48"/>
 <path d="m11.049855 57.084491v-14.011036h14.011036" style="fill:none;stroke-linecap:round;stroke-linejoin:round;stroke-width:6.0047293;stroke:#91dd48"/>
 <path d="m5.0451259 51.079761h4.003153" style="fill:none;stroke-linecap:round;stroke-linejoin:round;stroke-width:6.0047293;stroke:#91dd48"/>
 <path d="m53.082962 7.0450784v14.011036h-14.011036" style="fill:none;stroke-linecap:round;stroke-linejoin:round;stroke-width:6.0047293;stroke:#91dd48"/>
 <path d="m59.087691 13.049808h-4.003153" style="fill:none;stroke-linecap:round;stroke-linejoin:round;stroke-width:6.0047293;stroke:#91dd48"/>
 <path d="m53.082962 57.084491v-14.011036h-14.011036" style="fill:none;stroke-linecap:round;stroke-linejoin:round;stroke-width:6.0047293;stroke:#91dd48"/>
 <path d="m59.087691 51.079761h-4.003153" style="fill:none;stroke-linecap:round;stroke-linejoin:round;stroke-width:6.0047293;stroke:#91dd48"/>
 <path d="m11.003906 4.0039062a3.0027651 3.0027651 0 0 0 -2.957031 3.0410157v1a3.0027651 3.0027651 0 0 1 2.957031 -3.0410157 3.0027651 3.0027651 0 0 1 3.048828 3.0410157v-1a3.0027651 3.0027651 0 0 0 -3.048828 -3.0410157zm42.03125 0a3.0027651 3.0027651 0 0 0 -2.955078 3.0410157v1a3.0027651 3.0027651 0 0 1 2.955078 -3.0410157 3.0027651 3.0027651 0 0 1 3.048828 3.0410157v-1a3.0027651 3.0027651 0 0 0 -3.048828 -3.0410157zm-23.771484 2.0410157c-6.210892 0-11.208984 4.8872501-11.208984 10.957031v1c0-6.069781 4.998092-10.957031 11.208984-10.957031h5.603516c6.210892 0 11.208984 4.8872501 11.208984 10.957031v-1c0-6.069781-4.998092-10.957031-11.208984-10.957031h-5.603516zm-24.21875 4.0019531a3.0027651 3.0027651 0 0 0 -2.9980469 3.496094 3.0027651 3.0027651 0 0 1 2.9980469 -2.494141h3.0019531v-1.001953h-3.0019531zm51.039062 0v1.001953h3.001954a3.0027651 3.0027651 0 0 1 3 2.494141 3.0027651 3.0027651 0 0 0 -3 -3.496094h-3.001954zm-42.033203 8.007813v1h4.003907v-0.09375-0.90625h-4.003907zm32.025391 0v0.90625 0.09375h4.003906v-1h-4.003906zm-35.027344 22.015624a3.0027651 3.0027651 0 0 0 -3.001953 3.003907v1a3.0027651 3.0027651 0 0 1 3.001953 -3.001953h7.00586v-1.001954h-7.00586zm35.027344 0v1.001954h7.005859a3.0027651 3.0027651 0 0 1 3.001953 3.001953v-1a3.0027651 3.0027651 0 0 0 -3.001953 -3.003907h-7.005859zm-41.03125 8.007813a3.0027651 3.0027651 0 0 0 -2.9980469 3.494141 3.0027651 3.0027651 0 0 1 2.9980469 -2.494141h3.0019531v-1h-3.0019531zm51.039062 0v1h3.001954a3.0027651 3.0027651 0 0 1 3 2.494141 3.0027651 3.0027651 0 0 0 -3 -3.494141h-3.001954z" style="fill-rule:evenodd;fill:#ffffff;opacity:.2"/>
 <circle cx="22" cy="10" r="6" style="fill:#9a48dd"/>
 <circle cx="22.059" cy="10.997" r="4.003" style="opacity:.2"/>
 <circle cx="22" cy="10" r="4" style="fill:#ffffff"/>
 <circle cx="42" cy="10" r="6" style="fill:#9a48dd"/>
 <circle cx="42.074" cy="10.997" r="4.003" style="opacity:.2"/>
 <circle cx="42" cy="10" r="4" style="fill:#ffffff"/>
</svg>

<svg xmlns="http://www.w3.org/2000/svg" width="64" height="64" version="1.1" viewBox="0 0 64 64">
 <path style="opacity:0.2;fill-rule:evenodd" d="m 2.183472,12.850479 a 3.0027651,3.0027651 0 0 0 2.8616539,4.003153 l 3.0023648,0 0,-2.04441 -3.0023648,0 A 3.0027651,3.0027651 0 0 1 2.183472,12.827061 Z m 59.765073,0 a 3.0027651,3.0027651 0 0 1 -2.860253,2.001577 l -3.002365,0 0,2.04441 3.002365,0 a 3.0027651,3.0027651 0 0 0 2.861654,-4.022568 z m -53.9004539,7.005518 0,2.04441 a 3.0027651,3.0027651 0 0 0 3.0023649,3.002365 l 7.005518,0 0,-2.04441 -7.005518,0 A 3.0027651,3.0027651 0 0 1 8.0480911,19.855997 Z m 48.0378359,0 a 3.0027651,3.0027651 0 0 1 -3.002365,3.002365 l -7.005517,0 0,2.04441 7.005517,0 a 3.0027651,3.0027651 0 0 0 3.002365,-3.002365 l 0,-2.04441 z m -42.033106,25.019706 0,2.044411 4.003153,0 0,1.051628 c 0,6.069781 4.998336,10.957831 11.208027,10.957831 l 5.606016,0 c 6.209691,0 11.208028,-4.88805 11.208028,-10.957831 l 0,-1.051628 4.003153,0 0,-2.044411 -4.003153,0 0,1.051429 c 0,6.06978 -4.998337,10.95803 -11.208028,10.95803 l -5.606016,0 c -6.210891,0 -11.208828,-4.803783 -11.208828,-11.00867 l 0,-1.051428 -4.003153,0 z M 2.1840725,50.899848 a 3.0027651,3.0027651 0 0 0 2.8616539,4.003153 l 3.0023647,0 0,-2.04441 -3.0023647,0 A 3.0027651,3.0027651 0 0 1 2.1840725,50.87643 Z m 59.7650725,0 a 3.0027651,3.0027651 0 0 1 -2.860253,2.001577 l -3.002364,0 0,2.04441 3.002364,0 a 3.0027651,3.0027651 0 0 0 2.861654,-4.022568 z m -53.9004534,5.003941 0,2.044411 a 3.0027651,3.0027651 0 1 0 6.0047294,0 l 0,-2.044411 a 3.0027651,3.0027651 0 1 1 -6.0047294,0 z m 42.0331064,0 0,2.044411 a 3.0027651,3.0027651 0 1 0 6.00473,0 l 0,-2.044411 a 3.0027651,3.0027651 0 1 1 -6.00473,0 z"/>
 <path style="fill:#91dd48" d="m 29.264202,6.0442901 5.604414,0 c 6.209691,0 11.208828,4.8862489 11.208828,10.9560289 l 0,30.129731 c 0,6.069781 -4.999137,10.95603 -11.208828,10.95603 l -5.604414,0 c -6.209691,0 -11.208829,-4.886249 -11.208829,-10.95603 l 0,-30.129731 c 0,-6.06978 4.999138,-10.9560289 11.208829,-10.9560289 z"/>
 <g style="fill:none;stroke:#91dd48;stroke-width:3;stroke-linecap:round;stroke-linejoin:round" transform="matrix(2.0015765,0,0,2.0015765,0.04118465,-2042.3691)">
  <path d="m 5.5,1023.9 0,7 7,0"/>
  <path d="m 2.5,1026.9 2,0"/>
 </g>
 <path style="fill:none;stroke:#91dd48;stroke-width:6.00472927;stroke-linecap:round;stroke-linejoin:round" d="m 11.049855,7.0450784 0,14.0110356 14.011036,0"/>
 <path style="fill:none;stroke:#91dd48;stroke-width:6.00472927;stroke-linecap:round;stroke-linejoin:round" d="m 5.0451259,13.049808 4.003153,0"/>
 <path style="fill:none;stroke:#91dd48;stroke-width:6.00472927;stroke-linecap:round;stroke-linejoin:round" d="m 11.049855,57.084491 0,-14.011036 14.011036,0"/>
 <path style="fill:none;stroke:#91dd48;stroke-width:6.00472927;stroke-linecap:round;stroke-linejoin:round" d="m 5.0451259,51.079761 4.003153,0"/>
 <path style="fill:none;stroke:#91dd48;stroke-width:6.00472927;stroke-linecap:round;stroke-linejoin:round" d="m 53.082962,7.0450784 0,14.0110356 -14.011036,0"/>
 <path style="fill:none;stroke:#91dd48;stroke-width:6.00472927;stroke-linecap:round;stroke-linejoin:round" d="m 59.087691,13.049808 -4.003153,0"/>
 <path style="fill:none;stroke:#91dd48;stroke-width:6.00472927;stroke-linecap:round;stroke-linejoin:round" d="m 53.082962,57.084491 0,-14.011036 -14.011036,0"/>
 <path style="fill:none;stroke:#91dd48;stroke-width:6.00472927;stroke-linecap:round;stroke-linejoin:round" d="m 59.087691,51.079761 -4.003153,0"/>
 <path style="opacity:0.2;fill:#ffffff;fill-rule:evenodd" d="M 11.003906 4.0039062 A 3.0027651 3.0027651 0 0 0 8.046875 7.0449219 L 8.046875 8.0449219 A 3.0027651 3.0027651 0 0 1 11.003906 5.0039062 A 3.0027651 3.0027651 0 0 1 14.052734 8.0449219 L 14.052734 7.0449219 A 3.0027651 3.0027651 0 0 0 11.003906 4.0039062 z M 53.035156 4.0039062 A 3.0027651 3.0027651 0 0 0 50.080078 7.0449219 L 50.080078 8.0449219 A 3.0027651 3.0027651 0 0 1 53.035156 5.0039062 A 3.0027651 3.0027651 0 0 1 56.083984 8.0449219 L 56.083984 7.0449219 A 3.0027651 3.0027651 0 0 0 53.035156 4.0039062 z M 29.263672 6.0449219 C 23.05278 6.0449219 18.054688 10.932172 18.054688 17.001953 L 18.054688 18.001953 C 18.054688 11.932172 23.05278 7.0449219 29.263672 7.0449219 L 34.867188 7.0449219 C 41.07808 7.0449219 46.076172 11.932172 46.076172 18.001953 L 46.076172 17.001953 C 46.076172 10.932172 41.07808 6.0449219 34.867188 6.0449219 L 29.263672 6.0449219 z M 5.0449219 10.046875 A 3.0027651 3.0027651 0 0 0 2.046875 13.542969 A 3.0027651 3.0027651 0 0 1 5.0449219 11.048828 L 8.046875 11.048828 L 8.046875 10.046875 L 5.0449219 10.046875 z M 56.083984 10.046875 L 56.083984 11.048828 L 59.085938 11.048828 A 3.0027651 3.0027651 0 0 1 62.085938 13.542969 A 3.0027651 3.0027651 0 0 0 59.085938 10.046875 L 56.083984 10.046875 z M 14.050781 18.054688 L 14.050781 19.054688 L 18.054688 19.054688 L 18.054688 18.960938 L 18.054688 18.054688 L 14.050781 18.054688 z M 46.076172 18.054688 L 46.076172 18.960938 L 46.076172 19.054688 L 50.080078 19.054688 L 50.080078 18.054688 L 46.076172 18.054688 z M 11.048828 40.070312 A 3.0027651 3.0027651 0 0 0 8.046875 43.074219 L 8.046875 44.074219 A 3.0027651 3.0027651 0 0 1 11.048828 41.072266 L 18.054688 41.072266 L 18.054688 40.070312 L 11.048828 40.070312 z M 46.076172 40.070312 L 46.076172 41.072266 L 53.082031 41.072266 A 3.0027651 3.0027651 0 0 1 56.083984 44.074219 L 56.083984 43.074219 A 3.0027651 3.0027651 0 0 0 53.082031 40.070312 L 46.076172 40.070312 z M 5.0449219 48.078125 A 3.0027651 3.0027651 0 0 0 2.046875 51.572266 A 3.0027651 3.0027651 0 0 1 5.0449219 49.078125 L 8.046875 49.078125 L 8.046875 48.078125 L 5.0449219 48.078125 z M 56.083984 48.078125 L 56.083984 49.078125 L 59.085938 49.078125 A 3.0027651 3.0027651 0 0 1 62.085938 51.572266 A 3.0027651 3.0027651 0 0 0 59.085938 48.078125 L 56.083984 48.078125 z"/>
 <circle style="fill:#9a48dd" cx="22" cy="10" r="6"/>
 <circle style="opacity:0.2" cx="22.059" cy="10.997" r="4.003"/>
 <circle style="fill:#ffffff" cx="22" cy="10" r="4"/>
 <circle style="fill:#9a48dd" cx="42" cy="10" r="6"/>
 <circle style="opacity:0.2" cx="42.074" cy="10.997" r="4.003"/>
 <circle style="fill:#ffffff" cx="42" cy="10" r="4"/>
</svg>
